.local/share/icons/Gruvbox-Plus-Dark/actions/24/task-past-due.svg

<svg width="24" height="24" version="1.1" xmlns="http://www.w3.org/2000/svg">
  <defs>
    <style id="current-color-scheme" type="text/css">.ColorScheme-Text { color:#ebdbb2; } .ColorScheme-Highlight { color:#458588; }</style>
  </defs>
  <path class="ColorScheme-Text" d="m12 4a2 2 0 0 0-2 2h-4c-0.554 0-1 0.45-1 1v11c0 0.55 0.446 1 1 1h8v-3h-6v-1h6v-1h5v-7c0-0.55-0.446-1-1-1h-4a2 2 0 0 0-2-2zm0 1a1 1 0 0 1 1 1 1 1 0 0 1-1 1 1 1 0 0 1-1-1 1 1 0 0 1 1-1zm-4 4h8v1h-8zm0 3h8v1h-8z" fill="currentColor" opacity=".3"/>
  <path class="ColorScheme-Text" d="m15 15v1c0 0.28 0.1 0.54 0.28 0.72l0.78 0.78-0.78 0.78c-0.18 0.18-0.28 0.44-0.28 0.72v1h1c0.28 0 0.54-0.1 0.72-0.28l0.78-0.78 0.78 0.78c0.18 0.18 0.44 0.28 0.72 0.28h1v-1c0-0.28-0.1-0.54-0.28-0.72l-0.78-0.78 0.78-0.78c0.18-0.18 0.28-0.44 0.28-0.72v-1h-1c-0.28 0-0.54 0.1-0.72 0.28l-0.78 0.78-0.78-0.78c-0.18-0.18-0.44-0.28-0.72-0.28z" fill="currentColor"/>
</svg>

<svg xmlns="http://www.w3.org/2000/svg" width="24" height="24" version="1.1" viewBox="0 0 24 24">
 <defs>
  <style id="current-color-scheme" type="text/css">
   .ColorScheme-Text { color:#ebdbb2; } .ColorScheme-Highlight { color:#458588; }
  </style>
 </defs>
 <path style="opacity:0.3;fill:currentColor" class="ColorScheme-Text" d="M 12,4 A 2,2 0 0 0 10,6 H 6 C 5.446,6 5,6.45 5,7 v 11 c 0,0.55 0.446,1 1,1 h 8 V 16 H 8 v -1 h 6 v -1 h 5 V 7 C 19,6.45 18.554,6 18,6 H 14 A 2,2 0 0 0 12,4 Z m 0,1 A 1,1 0 0 1 13,6 1,1 0 0 1 12,7 1,1 0 0 1 11,6 1,1 0 0 1 12,5 Z M 8,9 h 8 v 1 H 8 Z m 0,3 h 8 v 1 H 8 Z"/>
 <path style="fill:currentColor" class="ColorScheme-Text" d="m 15,15 v 1 c 0,0.28 0.1,0.54 0.28,0.72 l 0.78,0.78 -0.78,0.78 C 15.1,18.46 15,18.72 15,19 v 1 h 1 c 0.28,0 0.54,-0.1 0.72,-0.28 l 0.78,-0.78 0.78,0.78 C 18.46,19.9 18.72,20 19,20 h 1 v -1 c 0,-0.28 -0.1,-0.54 -0.28,-0.72 L 18.94,17.5 19.72,16.72 C 19.9,16.54 20,16.28 20,16 v -1 h -1 c -0.28,0 -0.54,0.1 -0.72,0.28 L 17.5,16.06 16.72,15.28 C 16.54,15.1 16.28,15 16,15 Z"/>
</svg>
